X: 31280
T: Paddy In London
R: jig
M: 6/8
K: Dmajor
FDF ABc|dec def|AGF G2A|BGE EDE|
FDF ABc|dec def|AGF EAG|1 FDD DAG:|2 FDD Dgf|
|:ecA Agf|edc d2A|G2A FGA|BGE Egf|
ecA gfe|dec def|AGF EAG|1 FDD Dgf:|2 FDD Def|
|:g3 ~f3|gfe def|g2e fga|bge e2f|
gfg ~f3|gfe d2A|Bcd edB|1 AFD Def:|2 AFD DAG||

